X: 43
T:Shebag Shebong
% Nottingham Music Database
S:Kevin Briggs
M:3/4
L:1/4
K:D
d/2e/2|f2e|d2(3f/2e/2d/2|BBA|F2A|B/2A/2B/2c/2d/2f/2|e2d/2e/2|ffe|
d2f|B2f|A2e|FFE|D2f|B2e/2c/2|A2d/2c/2|d2d/2c/2|d3/2c/2d/2e/2|
ff/2e/2d|e/2d/2e/2f/2a|b2a|f2e/2d/2|eea|f2e|d2B|A2B/2d/2|
FFE|D2f|B2e|A2f/2a/2|b/2a/2g/2f/2e/2d/2|e2d/2c/2|d2d/2c/2|d2:|


